X: 1
T:The Pumpkin's Fancy
M:C|
L:1/8
Q:80
C:T. Tully
S:Hornpipe
K:HP
[| f/2e/2|
{g}B/4-c3/4f/2e/2{g}B/4-c3/4f/2e/2|
{g}f/2e/2c/2B/2{gcecG}cf/2e/2|  !
{g}f/2a/2{g}a/2f/2{g}e/2f/2A/2B/2|
{gcecG}cB/2A/2{gBeBG}Bf/2e/2|]
{g}B/4-c3/4f/2e/2{g}B/4-c3/4f/2e/2|  !
{g}f/2e/2c/2B/2{gcecG}cf/2e/2|
{g}f/2a/2{g}a/2f/2{g}e/2f/2A/2B/2|
{gcecG}c{G}A{gAGAG}A|]  !
f/2e/2|
{g}B/4-c3/4f/2e/2{g}B/4-c3/4f/2e/2|
{g}f/2e/2c/2B/2{gcecG}cf/2e/2|  !
{g}f/2a/2{g}a/2f/2{g}e/2f/2A/2B/2|
{gcecG}cB/2A/2{gBeBG}Bf/2e/2|]
{g}B/4-c3/4f/2e/2{g}B/4-c3/4f/2e/2|  !
{g}f/2e/2c/2B/2{gcecG}cf/2e/2|
{g}f/2a/2{g}a/2f/2{g}e/2f/2A/2B/2|
{gcecG}c{G}A{gAGAG}A|]  !
{g}f/2e/2|
{ag}a{gfg}f/2e/2{ag}a{gfg}f/2e/2|
{g}f/2e/2c/2B/2{gcecG}cf/2e/2|  !
{g}f/2a/2{g}a/2f/2{g}e/2f/2A/2B/2|
{gcecG}cB/2A/2{gBeBG}Bf/2e/2{ag}a{gfg}f/2e/2{ag}a{gfg}f/2e/2|
{g}f/2e/2c/2B/2{gcecG}cf/2e/2|  !
{g}f/2a/2{g}a/2f/2{g}e/2f/2A/2B/2|
{gcecG}c{G}A{gAGAG}A|]
{g}f/2e/2|  !
{ag}a{gfg}f/2e/2{ag}a{gfg}f/2e/2|
{g}f/2e/2c/2B/2{gcecG}cf/2e/2|
{g}f/2a/2{g}a/2f/2{g}e/2f/2A/2B/2|  !
{gcecG}cB/2A/2{gBeBG}Bf/2e/2{g}B/4-c3/4f/2e/2{g}B/4-c3/4f/2e/2|
{g}f/2e/2c/2B/2{gcecG}cf/2e/2|
{g}f/2a/2{g}a/2f/2{g}e/2f/2A/2B/2|  !
{gcecG}c{G}A{gAGAG}A|]
f/2e/2|
{g}B/4-c3/4f/2e/2{gAGAG}Af/2e/2|  !
{g}B/2c/2{G}c/2B/2{gcecG}cf/2e/2|
{g}B/4c3/4f/2e/2{gAGAG}Af/2e/2|
{g}f/2e/2c/2B/2{gBeBG}Bf/2e/2|]  !
{g}B/4-c3/4f/2e/2{gAGAG}Af/2e/2|
{g}B/2c/2{G}c/2B/2{gcecG}cf/2e/2|
{g}f/2a/2{g}a/2f/2{g}e/2f/2A/2B/2|  !
{gcecG}c{G}A{gAGAG}A|]
f/2e/2|
{g}B/4-c3/4f/2e/2{gAGAG}Af/2e/2|  !
{g}B/2c/2{G}c/2B/2{gcecG}cf/2e/2|
{g}B/4-c3/4f/2e/2{gAGAG}Af/2e/2|
{g}f/2e/2c/2B/2{gBeBG}Bf/2e/2|]  !
{g}B/4-c3/4f/2e/2{gAGAG}Af/2e/2|
{g}B/2c/2{G}c/2B/2{gcecG}cf/2e/2|
{g}f/2a/2{g}a/2f/2{g}e/2f/2A/2B/2|  !
{gcecG}c{G}A{gAGAG}A|]
{g}f/2e/2|
{ag}af/2e/2{gcecG}c{g}f/2e/2|  !
{g}f/2a/2f/2e/2{gcecG}cf/2e/2|
{g}f/2a/2{g}a/2f/2{g}e/2f/2A/2B/2|
{gcecG}cB/2A/2{gBeBG}Bf/2e/2|]  !
{ag}af/2e/2{gcecG}c{g}f/2e/2|
{g}f/2a/2f/2e/2{gcecG}cf/2e/2|
{g}f/2a/2{g}a/2f/2{g}e/2f/2A/2B/2|  !
{gcecG}c{G}A{gAGAG}A|]
{g}f/2e/2|
{ag}af/2e/2{gcecG}c{g}f/2e/2|  !
{g}f/2a/2f/2e/2{gcecG}cf/2e/2|
{g}f/2a/2{g}a/2f/2{g}e/2f/2A/2B/2|
{gcecG}cB/2A/2{gBeBG}Bf/2e/2|]  !
{g}B/4-c3/4f/2e/2{gAGAG}Af/2e/2|
{g}B/2c/2{G}c/2B/2{gcecG}cf/2e/2|
{g}f/2a/2{g}a/2f/2{g}e/2f/2A/2B/2|  !
{gcecG}c{G}A{gAGAG}A|]
